X:1
T:Title
%%score { ( 1 4 ) | ( 2 3 ) }
L:1/8
Q:1/4=100
M:4/4
K:Eb
V:1 treble nm="Grand Piano"
V:4 treble 
V:2 bass 
V:3 bass 
V:1
 [A,CE]2 [G,B,E]2 [A,EA]2 [CEA]2 | [Ec]2 [EA]2 [_DB]2 [A,CA]2 | [Ec]2 [B,EB]2 [B,FA]2 [B,EG]2 | %3
w: C.~I.~Latrobe * * *|||
 [CEF]2 .[B,DF]2 [G,E]4 | [A,CE]2 [G,B,E]2 [A,EA]2 [CEA]2 | [Ec]2 [EA]2 [_DB]2 [A,CA]2 | %6
w: |||
 [Ec]2 [B,EB]2 [B,FA]2 [B,EG]2 | [CEF]2 .[B,DF]2 [G,E]4 | [A,EA]2 [Ec]2 B2 B2 | B2 A2 G2 E2 | %10
w: ||||
 e2 e2 c2 [EA]2 |[M:8/4] z2 B2 z4 z8 |[M:4/4] [_DA]4 [CA]4 |] %13
w: |||
V:2
 A,,2 E,2 C,2 A,,2 | [A,,A,]2 [C,A,]2 [E,G,]2 A,,2 | A,2 G,2 D,2 E,2 | A,,2 z A, E,4 | %4
 A,,2 E,2 C,2 A,,2 | [A,,A,]2 [C,A,]2 [E,G,]2 A,,2 | A,2 G,2 D,2 E,2 | A,,2 z A, E,4 | %8
 C,2 [A,,A,]2 [E,G,E]2 [E,G,E]2 | [G,B,E]2 [B,D]2 [E,B,E]2 [E,G,]2 | %10
 [A,CE]2 [G,B,E]2 [A,E]2 [C,A,]2 |[M:8/4] [_D,A,]2 .[E,G,E]2 [A,,A,]4 z8 | %12
[M:4/4] [_D,F,]4 [A,,E,]4 |] %13
V:3
 x8 | x8 | x8 | z2 B,,2 z4 | x8 | x8 | x8 | z2 B,,2 z4 | x8 | x8 | x8 |[M:8/4] x16 |[M:4/4] x8 |] %13
V:4
 x8 | x8 | x8 | x8 | x8 | x8 | x8 | x8 | x8 | x8 | x8 |[M:8/4] .[F_d]3 _D [CA]4 z8 |[M:4/4] x8 |] %13

